packages/foundations/assets/icons/functional/images/date & time/calendar_20.svg

<svg width="20" height="20" viewBox="0 0 20 20" fill="none" xmlns="http://www.w3.org/2000/svg">
<g clip-path="url(#clip0_185_661)">
<path fill-rule="evenodd" clip-rule="evenodd" d="M3 16.0028V5.99167C3 5.44415 3.4497 4.99444 3.99722 4.99444H5.99167V3.99722C5.99167 3.4497 6.44137 3 6.98879 3C7.55585 3 8.00556 3.4497 8.00556 3.99722V4.99444H11.9944V3.99722C11.9944 3.4497 12.4441 3 13.0112 3C13.5586 3 14.0083 3.4497 14.0083 3.99722V4.99444H16.0028C16.5503 4.99444 17 5.44415 17 5.99167V16.0028C17 16.5503 16.5503 17 16.0028 17H3.99722C3.4497 17 3 16.5503 3 16.0028ZM4.99444 15.0056H15.0056V10.9972H4.99444V15.0056ZM4.99444 9.00278H15.0056V6.98879L4.99444 7.00843V9.00278Z" fill="#1A1C1F"/>
</g>
<defs>
<clipPath id="clip0_185_661">
<rect width="20" height="20" fill="white"/>
</clipPath>
</defs>
</svg>

<svg xmlns="http://www.w3.org/2000/svg" width="20" height="20" fill="none"><g clip-path="url(#a)"><path fill="#1A1C1F" fill-rule="evenodd" d="M3 16.003V5.992c0-.548.45-.998.997-.998h1.995v-.997c0-.547.45-.997.997-.997.567 0 1.017.45 1.017.997v.997h3.988v-.997c0-.547.45-.997 1.017-.997.548 0 .997.45.997.997v.997h1.995c.547 0 .997.45.997.998v10.01c0 .548-.45.998-.997.998H3.997C3.45 17 3 16.55 3 16.003m1.994-.997h10.012v-4.009H4.994zm0-6.003h10.012V6.989l-10.012.02z" clip-rule="evenodd"/></g><defs><clipPath id="a"><path fill="#fff" d="M0 0h20v20H0z"/></clipPath></defs></svg>
